images/input.svg

<svg width="14" height="15" viewBox="0 0 14 15" fill="none" xmlns="http://www.w3.org/2000/svg">
<path fill-rule="evenodd" clip-rule="evenodd" d="M8 1.52461C8 1.15642 8.29848 0.857941 8.66667 0.857941H11.3333C11.8638 0.857941 12.3725 1.06865 12.7475 1.44373C13.1226 1.8188 13.3333 2.32751 13.3333 2.85794V12.1913C13.3333 12.7217 13.1226 13.2304 12.7475 13.6055C12.3725 13.9806 11.8638 14.1913 11.3333 14.1913H8.66667C8.29848 14.1913 8 13.8928 8 13.5246C8 13.1564 8.29848 12.8579 8.66667 12.8579H11.3333C11.5101 12.8579 11.6797 12.7877 11.8047 12.6627C11.9298 12.5377 12 12.3681 12 12.1913V2.85794C12 2.68113 11.9298 2.51156 11.8047 2.38654C11.6797 2.26151 11.5101 2.19127 11.3333 2.19127H8.66667C8.29848 2.19127 8 1.8928 8 1.52461ZM4.86189 3.71987C5.12224 3.45952 5.54435 3.45952 5.8047 3.71987L9.1338 7.04897C9.15092 7.06579 9.16714 7.08353 9.18238 7.1021C9.21424 7.1409 9.24106 7.18246 9.26283 7.22589C9.30794 7.31575 9.33333 7.41721 9.33333 7.52461C9.33333 7.63323 9.30735 7.73579 9.26127 7.8264C9.24098 7.86635 9.21641 7.90469 9.18756 7.94072C9.17076 7.96172 9.15271 7.98169 9.13354 8.0005L5.8047 11.3293C5.54435 11.5897 5.12224 11.5897 4.86189 11.3293C4.60154 11.069 4.60154 10.6469 4.86189 10.3865L7.05715 8.19127H0.666667C0.298477 8.19127 0 7.8928 0 7.52461C0 7.15642 0.298477 6.85794 0.666667 6.85794H7.05715L4.86189 4.66268C4.60154 4.40233 4.60154 3.98022 4.86189 3.71987Z" fill="#2D3440"/>
</svg>

<svg xmlns="http://www.w3.org/2000/svg" width="14" height="15" fill="none"><path fill="#2D3440" fill-rule="evenodd" d="M8 1.52c0-.36.3-.66.67-.66h2.66a2 2 0 0 1 2 2v9.33a2 2 0 0 1-2 2H8.67a.67.67 0 0 1 0-1.33h2.66a.67.67 0 0 0 .67-.67V2.86a.67.67 0 0 0-.67-.67H8.67A.67.67 0 0 1 8 1.52Zm-3.14 2.2a.67.67 0 0 1 .94 0l3.33 3.33a.67.67 0 0 1 .2.47.66.66 0 0 1-.2.48L5.8 11.33a.67.67 0 1 1-.94-.94l2.2-2.2H.66a.67.67 0 1 1 0-1.33h6.4l-2.2-2.2a.67.67 0 0 1 0-.94Z" clip-rule="evenodd"/></svg>
